X:65
T: Jungfer Doertchen
N: Q0057D
O: Mitteleuropa, Deutschland (BRD) , Hessen, Nassau, Ellershausen
R: Ballade, Todesahnung, Tod, Selbstmord
M: 6/8
L: 1/16
K: G
D2G4e2 | d3ed2c4d2 | B4
D2G4e2 | d3ed2c4d2 | B4
c2c3de2 | e2d2c2c3de2 | d4
d2A3Ae2 | e3dc2d3edc | B4
c2c3de2 | e2d2c2c3de2 | d4
d2A3Ae2 | e3dc2d3edc | B4

@@@ Tune index: 941
